src/components/images/mastercard.svg

<svg height="512pt" viewBox="0 -91 512 512" width="512pt" xmlns="http://www.w3.org/2000/svg"><path d="m347.339844 0c-33.765625 0-65.1875 10.222656-91.339844 27.722656-26.15625-17.5-57.574219-27.722656-91.339844-27.722656-90.792968 0-164.660156 73.859375-164.660156 164.644531 0 90.785157 73.867188 164.644531 164.660156 164.644531 33.765625 0 65.1875-10.222656 91.339844-27.722656 26.15625 17.5 57.574219 27.722656 91.339844 27.722656 90.792968 0 164.660156-73.859374 164.660156-164.644531 0-90.785156-73.867188-164.644531-164.660156-164.644531zm-182.679688 299.289062c-74.25 0-134.660156-60.402343-134.660156-134.644531 0-74.242187 60.410156-134.644531 134.660156-134.644531 24.300782 0 47.113282 6.46875 66.816406 17.773438-30.117187 29.855468-48.796874 71.21875-48.796874 116.871093 0 45.652344 18.679687 87.015625 48.796874 116.867188-19.703124 11.304687-42.515624 17.777343-66.816406 17.777343zm134.660156-134.644531c0 39.027344-16.699218 74.222657-43.320312 98.835938-9.421875-8.707031-17.597656-18.742188-24.230469-29.804688h17.304688c8.285156 0 15-6.714843 15-15 0-8.285156-6.714844-15-15-15h-30.617188c-1.851562-6.101562-3.285156-12.378906-4.261719-18.8125h58.882813c8.28125 0 15-6.714843 15-15 0-8.285156-6.71875-15-15-15h-60.042969c.460938-6.402343 1.378906-12.683593 2.710938-18.8125h33.328125c8.285156 0 15-6.714843 15-15 0-8.28125-6.714844-15-15-15h-22.960938c7.394531-15.234375 17.582031-28.867187 29.886719-40.246093 26.621094 24.617187 43.320312 59.8125 43.320312 98.839843zm48.019532 134.644531c-24.300782 0-47.113282-6.472656-66.816406-17.777343 30.117187-29.851563 48.796874-71.214844 48.796874-116.867188 0-45.652343-18.679687-87.015625-48.796874-116.871093 19.703124-11.304688 42.515624-17.773438 66.816406-17.773438 74.25 0 134.660156 60.402344 134.660156 134.644531 0 74.242188-60.410156 134.644531-134.660156 134.644531zm0 0"/></svg>

<?xml version="1.0" encoding="utf-8"?>
<!-- Generator: Adobe Illustrator 22.0.0, SVG Export Plug-In . SVG Version: 6.00 Build 0)  -->
<svg version="1.1" id="Layer_1" xmlns="http://www.w3.org/2000/svg" xmlns:xlink="http://www.w3.org/1999/xlink" x="0px" y="0px"
	 viewBox="0 0 512 330.3" style="enable-background:new 0 0 512 330.3;" xml:space="preserve">
<style type="text/css">
	.st0{fill:#84AE9F;}
</style>
<path class="st0" d="M347.3,0c-33.8,0-65.2,10.2-91.3,27.7C229.8,10.2,198.4,0,164.7,0C73.9,0,0,73.9,0,164.6
	s73.9,164.6,164.7,164.6c33.8,0,65.2-10.2,91.3-27.7c26.2,17.5,57.6,27.7,91.3,27.7c90.8,0,164.7-73.9,164.7-164.6S438.1,0,347.3,0z
	 M164.7,299.3C90.4,299.3,30,238.9,30,164.6S90.4,30,164.7,30c24.3,0,47.1,6.5,66.8,17.8c-30.1,29.9-48.8,71.2-48.8,116.9
	s18.7,87,48.8,116.9C211.8,292.8,189,299.3,164.7,299.3z M299.3,164.6c0,39-16.7,74.2-43.3,98.8c-9.4-8.7-17.6-18.7-24.2-29.8h17.3
	c8.3,0,15-6.7,15-15s-6.7-15-15-15h-30.6c-1.9-6.1-3.3-12.4-4.3-18.8h58.9c8.3,0,15-6.7,15-15s-6.7-15-15-15h-60
	c0.5-6.4,1.4-12.7,2.7-18.8h33.3c8.3,0,15-6.7,15-15c0-8.3-6.7-15-15-15h-23c7.4-15.2,17.6-28.9,29.9-40.2
	C282.6,90.4,299.3,125.6,299.3,164.6z M347.3,299.3c-24.3,0-47.1-6.5-66.8-17.8c30.1-29.9,48.8-71.2,48.8-116.9s-18.7-87-48.8-116.9
	C300.2,36.5,323,30,347.3,30C421.6,30,482,90.4,482,164.6S421.6,299.3,347.3,299.3z"/>
</svg>
